X: 1021
T: The Job of Journeywork (A10)
N: page A10
N: heptatonic
M:4/4
L:1/8
R: Reel
K:D
fe| "D"dcAG FGAB | "C"cABG "A"A2 fe | "D"d2 cA "G"BGAF |\
 "Em"GBAF "Bm"DEFG |"F#m"ABAF "A"GFEF | "Em"D2 DE "D"F2 "G"G2 |
 "A"A2 d2 cdef | "D"d2 dc d2 :|\
|:de | "D"f2 ef gfef | dcAG "A"A2 de | "D"f2 ef "A"gfef |
"D" d3c A2 fg|"A"agfa gfef|dcde f2ec|\
 dcAG FGAB | "C"cABG "A"A2 fe |"D"d2 cA "G"BGAF |
"Em"GBAF "Bm"DEFG | "F#m"ABAF "A"GFEF |\
 "Em"D2 DE "D"F2 "G"G2 | "A"A2 d2 cdef | "D"d2 dd d2:|
